X: 29616
T: North Music
R: reel
M: 4/4
K: Amixolydian
|:dc|B2 Bc dAdf|e2 dc B3 c|dAGF G2 (3Bcd|f2 ed e3 c|
dAde fdAF|BcBA F2 EF|B2 Bc dAdF|e2 dc de:|
|:fg|a2 ab afed|b2 ba f2 ef|g2 gf edfd|edcB AGec|
a2 ab afed|bc'ba f2 ef|g2 gf edfd|e2 dc de:|

